usr/share/icons/biglinux-icons-material/scalable/apps/vidcutter.svg

<?xml version="1.0" encoding="UTF-8" standalone="no"?>
<svg
   width="24"
   height="24"
   viewBox="0 0 6.349875 6.349875"
   version="1.1"
   id="svg2"
   sodipodi:docname="vidcutter.svg"
   inkscape:version="1.3 (0e150ed6c4, 2023-07-21)"
   xmlns:inkscape="http://www.inkscape.org/namespaces/inkscape"
   xmlns:sodipodi="http://sodipodi.sourceforge.net/DTD/sodipodi-0.dtd"
   xmlns="http://www.w3.org/2000/svg"
   xmlns:svg="http://www.w3.org/2000/svg">
  <defs
     id="defs2">
    <radialGradient
       id="paint0_radial_24_2"
       cx="0"
       cy="0"
       r="1"
       gradientUnits="userSpaceOnUse"
       gradientTransform="matrix(0,5.8207191,-5.8207191,0,3.1749367,0.26457812)">
      <stop
         stop-color="#7286F2"
         id="stop4"
         offset="0"
         style="stop-color:#a2b3fa;stop-opacity:1;" />
      <stop
         offset="1"
         stop-color="#4A5ECA"
         id="stop5"
         style="stop-color:#6d89f9;stop-opacity:1;" />
    </radialGradient>
  </defs>
  <sodipodi:namedview
     id="namedview2"
     pagecolor="#ffffff"
     bordercolor="#000000"
     borderopacity="0.25"
     inkscape:showpageshadow="2"
     inkscape:pageopacity="0.0"
     inkscape:pagecheckerboard="0"
     inkscape:deskcolor="#d1d1d1"
     inkscape:zoom="6.8500969"
     inkscape:cx="10.875758"
     inkscape:cy="15.255259"
     inkscape:window-width="2560"
     inkscape:window-height="998"
     inkscape:window-x="0"
     inkscape:window-y="0"
     inkscape:window-maximized="1"
     inkscape:current-layer="svg2" />
  <path
     fill-rule="evenodd"
     clip-rule="evenodd"
     d="m 2.5389019,0.29463122 c 0.031708,3.376e-4 0.062015,-0.003702 0.090922,-0.012117 0.3798772,-0.0248849 0.7597276,-0.0238756 1.1395538,0.003029 0.3443925,0.0268339 0.6777742,0.10155665 1.0001451,0.22416695 C 5.3054657,0.73035207 5.672171,1.1130522 5.8696632,1.6578084 5.9826094,1.985789 6.0493051,2.3230512 6.0697019,2.6695877 6.0979325,3.1047495 6.0878436,3.5389508 6.0393859,3.9721821 6.0031271,4.2766785 5.9243292,4.5695092 5.8029914,4.8506742 5.5779479,5.3381594 5.2132556,5.6744029 4.7089145,5.8594291 4.300203,5.9975256 3.8799471,6.0702118 3.4481225,6.0775363 2.9623835,6.1027836 2.4815121,6.0664284 2.0054936,5.9684705 1.1293226,5.7733067 0.58883971,5.2391344 0.38405469,4.365978 0.29715038,3.972934 0.25775082,3.5750879 0.26585619,3.1724396 0.25615726,2.7443014 0.30161827,2.3222265 0.40223885,1.9062101 0.61691983,1.0898179 1.1351724,0.58392702 1.9570022,0.38853906 2.1485014,0.34172157 2.3424672,0.31041871 2.5389019,0.29463122 Z"
     fill="url(#paint0_radial_24_2)"
     id="path1-7"
     style="fill:url(#paint0_radial_24_2);stroke-width:0.24253" />
  <g
     fill="#ffffff"
     id="g3"
     transform="matrix(0.361104,0,0,0.361104,0.11765048,0.11783104)">
    <path
       d="m 12.677,5.577 a 0.486,0.486 0 0 0 -0.18,0.043 c -0.106,0.048 -1.37,1.117 -1.695,1.434 -0.114,0.112 -0.214,0.188 -0.215,0.371 l -0.003,1.041 0.003,1.041 c 0,0.184 0.101,0.26 0.215,0.372 0.326,0.317 1.589,1.386 1.695,1.434 0.058,0.026 0.119,0.04 0.18,0.043 a 0.555,0.555 0 0 0 0.482,-0.259 c 0,0 0.07,-0.1 0.07,-0.211 V 6.047 c 0,-0.11 -0.07,-0.211 -0.07,-0.211 A 0.555,0.555 0 0 0 12.677,5.576 Z M 4.974,5.556 h 3.81 c 0.704,0 1.27,0.571 1.27,1.28 v 3.26 c 0,0.71 -0.566,1.28 -1.27,1.28 h -3.81 c -0.704,0 -1.27,-0.57 -1.27,-1.28 v -3.26 c 0,-0.709 0.566,-1.28 1.27,-1.28 z"
       id="path3" />
  </g>
  <path
     id="path7"
     style="fill:#4d4d4d;fill-opacity:1;stroke-width:0.24253"
     d="m 4.9014135,3.0064756 a 2.2631757,2.2631757 0 0 0 -2.2628668,2.2633832 2.2631757,2.2631757 0 0 0 0.153476,0.8035527 c 0.2177398,0.013791 0.4365471,0.015555 0.6562777,0.00413 0.4318242,-0.00733 0.8516523,-0.079974 1.2603631,-0.2180703 0.504341,-0.185026 0.869442,-0.5212194 1.094486,-1.0087041 0.121337,-0.2811647 0.199897,-0.573986 0.236156,-0.878482 0.02357,-0.2107666 0.03747,-0.4217993 0.04289,-0.6330239 A 2.2631757,2.2631757 0 0 0 4.9014135,3.0064716 Z" />
  <path
     id="path5"
     style="fill:#ffffff;stroke-width:0.24253"
     d="m 4.2048285,4.1376505 a 0.43536537,0.43536537 0 0 0 0,0.8707307 0.43039375,0.43039375 0 0 0 0.212386,-0.059943 L 4.7598225,5.2693426 4.4177312,5.5902469 A 0.43039375,0.43039375 0 0 0 4.2053453,5.5308199 0.4352056,0.4352056 0 0 0 3.7996933,6.0563588 c 0.085588,-0.00867 0.1706243,-0.020148 0.2552765,-0.034106 A 0.1742961,0.1742961 0 0 1 4.2048285,5.7922972 0.1742961,0.1742961 0 0 1 4.3903433,5.9530077 c 0.07639,-0.019227 0.1522822,-0.041445 0.2278885,-0.065111 a 0.4352056,0.4352056 0 0 0 0.00568,-0.03669 l 0.3699957,-0.3586273 0.153476,0.1446911 c 0.08915,-0.060324 0.171749,-0.1283229 0.248042,-0.2025676 L 4.6239118,4.6874769 A 0.4352056,0.4352056 0 0 0 4.2048285,4.1376505 Z m 1.566799,0.1746629 -0.685216,0.6469762 0.228405,0.2232378 0.575147,-0.5580945 c 0.03517,-0.1023323 0.06347,-0.2068284 0.08785,-0.3121195 z m -1.566799,0.086298 a 0.17440455,0.17440455 0 0 1 0,0.3488091 0.17440455,0.17440455 0 0 1 0,-0.3488091 z" />
</svg>

<svg xmlns="http://www.w3.org/2000/svg" width="24" height="24" viewBox="0 0 6.35 6.35"><defs><radialGradient id="a" cx="0" cy="0" r="1" gradientTransform="rotate(90 1.455 1.72) scale(5.82072)" gradientUnits="userSpaceOnUse"><stop offset="0" stop-color="#7286F2" style="stop-color:#a2b3fa;stop-opacity:1"/><stop offset="1" stop-color="#4A5ECA" style="stop-color:#6d89f9;stop-opacity:1"/></radialGradient></defs><path fill="url(#a)" fill-rule="evenodd" d="M2.539.295a.312.312 0 0 0 .09-.012c.38-.025.76-.024 1.14.003.345.026.678.101 1 .224.536.22.903.603 1.1 1.148.114.328.18.665.2 1.012.029.435.019.869-.03 1.302a3.144 3.144 0 0 1-.236.879 1.87 1.87 0 0 1-1.094 1.008c-.409.139-.83.211-1.26.219a5.668 5.668 0 0 1-1.444-.11C1.13 5.773.59 5.24.385 4.366a5.04 5.04 0 0 1-.12-1.194c-.009-.428.037-.85.137-1.266C.617 1.09 1.135.584 1.957.39c.192-.047.385-.079.582-.094Z" clip-rule="evenodd" style="fill:url(#a);stroke-width:.24253"/><path fill="#fff" d="M4.695 2.132a.175.175 0 0 0-.065.015 9.164 9.164 0 0 0-.612.518c-.04.04-.077.068-.077.134l-.001.376v.376c0 .066.037.094.078.134.118.115.574.5.612.518a.18.18 0 0 0 .065.016.2.2 0 0 0 .174-.094s.026-.036.026-.076V2.3c0-.04-.026-.076-.026-.076a.2.2 0 0 0-.174-.094Zm-2.781-.008H3.29a.46.46 0 0 1 .458.462v1.178a.46.46 0 0 1-.458.462H1.914a.46.46 0 0 1-.459-.462V2.586a.46.46 0 0 1 .459-.462z"/><path d="M4.901 3.006A2.263 2.263 0 0 0 2.64 5.27a2.263 2.263 0 0 0 .153.803c.218.014.437.016.656.005.432-.008.852-.08 1.26-.219a1.87 1.87 0 0 0 1.095-1.008c.121-.281.2-.574.236-.879a7.4 7.4 0 0 0 .043-.633 2.263 2.263 0 0 0-1.18-.333Z" style="fill:#4d4d4d;fill-opacity:1;stroke-width:.24253"/><path d="M4.205 4.138a.435.435 0 0 0 0 .87.43.43 0 0 0 .212-.06l.343.321-.342.321a.43.43 0 0 0-.213-.06.435.435 0 0 0-.405.526c.085-.008.17-.02.255-.034a.174.174 0 0 1 .15-.23.174.174 0 0 1 .185.161c.077-.02.153-.041.228-.065a.435.435 0 0 0 .006-.037l.37-.358.153.144c.09-.06.172-.128.248-.202l-.771-.748a.435.435 0 0 0-.42-.55Zm1.567.174-.686.647.229.224.575-.559c.035-.102.063-.206.088-.312zM4.205 4.4a.174.174 0 0 1 0 .348.174.174 0 0 1 0-.348z" style="fill:#fff;stroke-width:.24253"/></svg>
